X:1
T:Recovery. JaW.343, The
L:1/8
Q:1/4=100
M:2/4
I:linebreak $
K:C
V:1 treble 
V:1
 GcGc | (d/c/d/e/) dd | gfdB | (c/B/c/d/) cc | GcGc | (d/c/d/e/) dd | gfdB | ce c2 :: gf"^sic"eB | %9
 cecG |$ FF (F/E/F/G/) | (F2 E) z | gfdB | cecG | FE/F/ G/F/E/D/ | C2 z2 :: ee/e/ ee | e3 f | %18
 edcB c/B/c/d/ e2 |$ dd/d/ dd | d3 e | dcBA | G2 z2 :| %23
